X:112
T: Dahe zhangshui sha lang sha
N: C0144
O: China, Yunnan, Chenggong
S: II, 58, 1)]
N: "zart" ; Saengerin: Huang Bai
N: Einige Verzierungen, Glissandi und Fermaten.
N: In Takt 7 und 15 wir jew. statt der zweiten 2 eine 5 gesungen.
R: Shange. Nann siqing]
M: 2/4
L: 1/16
K: F
f2c2f2g2 | g3fd2dc | f2c2d2c2 | f8- | f4c2z2
c2d2d2c2 | c4G2G2 | F2C2F2G2G2F2 | F8- | F4C2z2
c2c2=B2c2 | f4c2c2 | c4F2F2 | G4G2z2
c2d2d2c2 | c4G2G2 | F2C2F2G2G2F2 | F8- | F4C2z2

